X:1
T:Title
%%score { ( 1 3 ) | ( 2 4 ) }
L:1/8
M:4/4
K:G
V:1 treble nm="Grand Piano"
V:3 treble 
V:2 bass 
V:4 bass 
V:1
 z4 z2[Q:1/4=100] GA | B2 B2 c3 B | BAGA B4 | ddde d2 BG | [GB]4 [FA]2 GA | B2 B2 c3 B | BAGA B4 | %7
 ddde d2 BG |[M:3/4] [CFA]4 [B,DG]2 |[M:1/4] [Gd][Gd] |[M:4/4] e4 e2 z2 | d4 z4 | %12
 [Fd][Fd][FA][GB] [Ac][EFc][DGB]A | GFGB d2 dd | e4 z4 | d4 z4 | %16
 [Fd][Fd][FA][GB] [Ac][Ac][GB][CFA] |[M:3/4] G6 |] %18
V:2
 z4 z2 [G,B,][G,C] | [G,D]2 [G,D]2 [G,E]3 [G,D] | [D,G,D][D,CD][D,B,D][D,F,D][K:treble] [G,D]4 | %3
 [G,B,G][G,B,G][G,B,G][G,CG] [G,B,G]2 [G,DG][K:bass][G,B,] | [D,D]4 [D,D]2 [G,B,][G,C] | %5
 [G,D]2 [G,D]2 [G,E]3 [G,D] | [D,G,D][D,CD][D,B,D][D,F,D][K:treble] [G,D]4 | %7
 [G,B,G][G,B,G][G,B,G][G,CG] [G,B,G]2 [G,DG][K:bass][G,B,] |[M:3/4] D,4 G,,2 | %9
[M:1/4] [G,B,][G,B,] |[M:4/4] [C,C][C,C][C,C][C,C] [C,C][C,C][C,C][C,C] | %11
 [G,B,G][G,B,][G,B,][G,B,] [G,B,G]2 [G,DG][G,DG] | [D,D][D,D][D,D][D,D] [D,D]D,D,[D,CD] | %13
 [G,B,D][G,A,D][G,B,D][G,DG] [G,B,G]2 [G,B,G][G,B,G] | [C,C][C,C][C,C][C,C] [C,C]2 [C,C][C,C] | %15
 [G,B,G][G,B,][G,B,][G,B,] [G,B,G]2 [G,DG][G,DG] | [D,D][D,D][D,D][D,D] [D,F,][D,F,][D,G,]D, | %17
[M:3/4] z2 C2 B,2 |] %18
V:3
 x8 | x8 | x8 | x8 | x8 | x8 | x8 | x8 |[M:3/4] x6 |[M:1/4] x2 |[M:4/4] GGGG GG[EG][Ge] | %11
 z GGG d2 BB | x8 | x8 | GGGG [Ge]2 [EG][Ge] | z GGG d2 BB | x8 |[M:3/4] B,2 E2 D2 |] %18
V:4
 x8 | x8 | x4[K:treble] x4 | x7[K:bass] x | x8 | x8 | x4[K:treble] x4 | x7[K:bass] x |[M:3/4] x6 | %9
[M:1/4] x2 |[M:4/4] x8 | x8 | x8 | x8 | x8 | x8 | x8 |[M:3/4] G,,6 |] %18

